public/company/sap.svg

<?xml version="1.0" encoding="UTF-8"?>
<svg width="512px" height="254px" viewBox="0 0 512 254" version="1.1" xmlns="http://www.w3.org/2000/svg" preserveAspectRatio="xMidYMid">
    <title>SAP</title>
    <defs>
        <linearGradient x1="50%" y1="0%" x2="50%" y2="100.002222%" id="sapLinearGradient-1">
            <stop stop-color="#00AEEF" offset="0%"></stop>
            <stop stop-color="#0097DC" offset="21.2%"></stop>
            <stop stop-color="#007CC5" offset="51.9%"></stop>
            <stop stop-color="#006CB8" offset="79.2%"></stop>
            <stop stop-color="#0066B3" offset="100%"></stop>
        </linearGradient>
    </defs>
    <g>
        <polyline fill="url(#sapLinearGradient-1)" points="0 253.281446 258.763582 253.281446 512 0 6.39883703e-14 0 6.39883703e-14 253.281446"></polyline>
        <path d="M303.847679,50.6562892 L253.281446,50.6562892 L253.450413,169.585999 L209.41884,50.6112614 L165.758748,50.6112614 L128.171781,149.970758 C124.175563,124.687642 98.0369175,115.963503 77.4704641,109.428842 C63.8889502,105.066772 49.4744217,98.6503089 49.620762,91.5584284 C49.7333316,85.7385836 57.3317749,80.3408746 72.4329776,81.1457468 C82.5642354,81.691709 91.5135132,82.5078381 109.316385,91.1081503 L126.820947,60.6018073 C110.58842,52.3392037 88.1420557,47.1216059 69.7369373,47.1047204 L69.6243678,47.1047204 C48.1629866,47.1047204 30.2925735,54.055889 19.2157316,65.5098388 C11.4934617,73.5022756 7.32838907,83.6673043 7.15953477,94.907372 C6.87811094,110.374426 12.5459869,121.338698 24.4558433,130.102236 C34.5195594,137.47554 47.3918853,142.259745 58.7332656,145.771915 C72.7200299,150.105842 84.1458373,153.876921 84.0051254,161.903129 C83.8925559,164.829936 82.7893745,167.565376 80.6843243,169.771739 C77.1946688,173.373964 71.847616,174.724798 64.4461693,174.871139 C50.1667243,175.175099 39.5851883,172.929314 22.7222725,162.961282 L7.14827782,193.861619 C23.9943082,203.441286 41.8759783,208.248005 62.1947787,208.248005 L66.7651017,208.214211 C84.4497751,207.893399 98.8023903,203.655145 110.205684,194.480729 C110.858576,193.957269 111.443949,193.428215 112.051824,192.893498 L110.138142,202.754589 L152.801995,202.619539 L160.456723,183.021184 C168.505444,185.767881 177.657347,187.287569 187.372098,187.287569 C196.839195,187.287569 205.743445,185.846679 213.640198,183.25758 L218.975994,202.619539 L295.523275,202.69271 L295.709037,158.013863 L311.997849,158.013863 C351.369042,158.013863 374.642793,137.976486 374.642793,104.374481 C374.629994,66.9507401 352.00506,50.6506719 303.847814,50.6506719 L303.847679,50.6562892 Z M187.371985,152.317833 C181.490227,152.317833 175.97432,151.293439 171.229514,149.492338 L187.191874,99.0893301 L187.501418,99.0893301 L203.204867,149.63305 C198.476947,151.321593 193.090495,152.317833 187.366334,152.317833 L187.371985,152.317833 Z M306.808258,123.359321 L295.697645,123.359321 L295.697645,82.7386056 L306.813887,82.7386056 C321.61678,82.7386056 333.436581,87.6691511 333.436581,102.787239 C333.423748,118.434404 321.61678,123.359321 306.813887,123.359321" fill="#FFFFFF"></path>
    </g>
</svg>

<svg xmlns="http://www.w3.org/2000/svg" width="512" height="254" preserveAspectRatio="xMidYMid" viewBox="0 0 512 254"><title>SAP</title><defs><linearGradient id="a" x1="50%" x2="50%" y1="0%" y2="100.002%"><stop offset="0%" stop-color="#00aeef"/><stop offset="21.2%" stop-color="#0097dc"/><stop offset="51.9%" stop-color="#007cc5"/><stop offset="79.2%" stop-color="#006cb8"/><stop offset="100%" stop-color="#0066b3"/></linearGradient></defs><path fill="url(#a)" d="M0 253.281h258.764L512 0H0z"/><path fill="#fff" d="M303.848 50.656H253.28l.17 118.93-44.032-118.975h-43.66l-37.587 99.36c-3.996-25.283-30.135-34.007-50.702-40.542-13.581-4.362-27.996-10.779-27.85-17.87.113-5.82 7.712-11.218 22.813-10.413 10.131.546 19.08 1.362 36.883 9.962l17.505-30.506c-16.233-8.263-38.679-13.48-57.084-13.497h-.113c-21.461 0-39.331 6.95-50.408 18.405C11.493 73.502 7.328 83.667 7.16 94.907c-.282 15.467 5.386 26.432 17.296 35.195 10.064 7.374 22.936 12.158 34.277 15.67 13.987 4.334 25.413 8.105 25.272 16.131-.112 2.927-1.216 5.662-3.32 7.869-3.49 3.602-8.837 4.953-16.239 5.1-14.28.303-24.86-1.943-41.724-11.91l-15.574 30.9c16.846 9.58 34.728 14.386 55.047 14.386l4.57-.034c17.685-.32 32.037-4.559 43.44-13.733.654-.524 1.239-1.053 1.847-1.588l-1.914 9.862 42.664-.135 7.655-19.599c8.048 2.747 17.2 4.267 26.915 4.267 9.467 0 18.371-1.441 26.268-4.03l5.336 19.362 76.547.073.186-44.68h16.289c39.371 0 62.645-20.037 62.645-53.639-.013-37.423-22.638-53.723-70.795-53.723zM187.372 152.318c-5.882 0-11.398-1.025-16.142-2.826l15.962-50.403h.31l15.703 50.544c-4.728 1.689-10.115 2.685-15.839 2.685zm119.436-28.959h-11.11V82.74h11.116c14.803 0 26.623 4.93 26.623 20.048-.013 15.647-11.82 20.572-26.623 20.572"/></svg>
